X:1
T:James Gibb editions
T:Peace; come away - Stanford
T:#
%%score [ 1 ( 2 3 ) 4 ( 5 6 ) ]
L:1/8
Q:1/4=84
M:3/4
K:F
V:1 treble nm="Soprano" snm="S"
V:2 treble nm="Alto" snm="A"
V:3 treble 
V:4 treble-8 nm="Tenor" snm="T"
V:5 bass nm="Bass" snm="B"
V:6 bass 
V:1
"^Alfred, Lord Tennyson\n(1809-92)""^Charles Villiers Stanford\n(1852-1924)" c2 z2 d>d | %1
w: Peace; come a-|
 B2"^Peace; come away" z2 c2 | (A2 c2) f2 | e4 d2 | c>B A2 c2 | F4 G2 | F6 | c2 z2 d>d | B2 z2 d2 | %9
w: way: the|song * of|woe Is|af- ter all an|earth- ly|song:|Peace; come a-|way: we|
 cB A3 f | ed d2 c z | z2 A2 G2 | E4 z2 | G2 z2 BB | G2 z2 G2 | _A4 _d2 | c4- cB | c3 B _A2- | %18
w: do him wrong To|sing so wild- ly:|let us|go.|Come; let us|go: your|cheeks are|pale; * But|half my life|
 A_A _G3 F | E4 z G | !courtesy!=A4 B2 | (c2 B2) c2 | [cf]4 d2 | c4- cB | AB c4 | z F G2 A2 | F6- | %27
w: * I leave be-|hind; Me-|thinks my|friend * is|rich- ly|shrined; * But|I shall pass:|my work will|fail.|
 F6 | F6 ||[M:4/4] A4 B2 c2 | d6 d2 | (B4 c2) d2 | _e6 f2 | d4 =e4 | c4 d4 | B4 A4 | %36
w: ||Yet in these|ears, till|hear\- * ing|dies, One|set slow|bell will|seem to|
[M:4/4] (A4 G2) C2 | F4 G4 | A4 G4 | C4 D4 | F6 E2 | E2 D2 A4- | A2 F2 E2 D2 | (D4 C4) | z4 z2 C2 | %45
w: toll * The|pass- ing|of the|sweet- est|soul That|e- ver look'd|* with hu- man|eyes *|I|
 G4 A4 | c4 z2 C2 | G4 A4 | c6 c2 | [c_e]6 [ce]2 | [c_e]4 [Fd]4 | [Gd]6 [Gc]2 | F8- | F2 z2 F4 | %54
w: hear it|now, and|o'er and|o'er, e-|ter- nal|greet- ings|to the|dead;|* And|
 d4 c2 z2 | d4 c2 z2 | d4 c2 z2 | F4 z2 G2 | A4 z2 G2 | A4 z2 G2 | E8- | E4 F4 | F8 |] %63
w: "A- ve,|A- ve,|A- ve,"|said, A-|dieu, a-|dieu, for|e\-|* ver-|more.|
V:2
 F2 z2 F>F | F2 z2 G2 | F4 A2 | (A2 F2) F2 | D>E F2 F2 | F4 E2 | C6 | F2 z2 F>F | F2 z2 D2 | %9
w: Peace; come a-|way: the|song of|woe * Is|af- ter all an|earth- ly|song:|Peace; come a-|way: we|
 GG G3 F | A^G G2 A z | z2 F2 D2 | C4 z2 | E2 z2 FF | E2 z2 E2 | F4 F2 | (F2 _E3) _D | C3 C C2- | %18
w: do him wrong To|sing so wild- ly:|let us|go-|Come; let us|go: your|cheeks are|pale; * But|half my life|
 CC _D3 D | C4 E2 | ([EG]2 F2) [FG]2 | (A2 G2) [FA]2 | A4 [FB]2 | (G2 A3) E | FF F4 | z F F2 E2 | %26
w: * I leave be-|hind: Me-|thinks * my|friend * is|rich- ly|shrined; * But|I shall pass:|my work will|
 C4 B,2 | (_E2 D2) (CB,) | C6 ||[M:4/4] F8 | D4 E2 F2 | G6 G2 | (F4 G2) A2 | A4 G4 | G4 F4 | %35
w: fail, my|work * will *|fail.|Yet|yet in these|ears, till|hear\- * ing|dies, One|bell will|
 E4 E4 |[M:4/4] (D4 E2) C2 | C4 F4 | F4 E4 | C4 C4 | C6 C2 | C6 C2 | F2 C2 =B,2 B,2 | (=B,4 C4) | %44
w: seem to|toll * The|pass- ing|of the|sweet- est|soul That|e- ver|look'd with hu- man|eyes. *|
 z4 z2 C2 | E4 E4 | E4 z2 C2 | E4 E4 | E6 E2 | F6 F2 | F4 [FA]4 | E6 E2 | F8- | F2 z2 F4 | %54
w: I|hear it|now, and|o'er and|o'er, e-|ter- nal|greet- ings|to the|dead;|* And|
 F4 F2 z2 | F4 F2 z2 | F4 F2 z2 | F4 z2 D2 | E4 z2 D2 | E4 z2 D2 | C8- | C4 C4 | C8 |] %63
w: "A- ve,|A- ve,|A- ve,"|said, A-|dieu, a-|dieu, for|e\-|* ver-|more.|
V:3
 x6 | x6 | x6 | x6 | x6 | x6 | x6 | x6 | x6 | x6 | x6 | x6 | x6 | x6 | x6 | x6 | x6 | x6 | x6 | %19
 x6 | x6 | F4 x2 | x4 x2 | C4- CE | x4 x2 | x4 x2 | x4 x2 | x4 x2 | x6 ||[M:4/4] x8 | x8 | x8 | %32
 x8 | x8 | x8 | x8 |[M:4/4] x8 | x8 | x8 | x8 | x8 | x8 | x8 | x8 | x8 | x8 | x8 | x8 | x8 | x8 | %50
 x8 | x8 | x8 | x8 | x8 | x8 | x8 | x8 | x8 | x8 | x8 | x8 | x8 |] %63
V:4
 c2 z2 A>A | B2 z2 G2 | A4 =B2 | c4 _B2 | A>G F2 c2 | (c2 B2) B2 | A6 | c2 z2 B>B | d2 z2 B2 | %9
w: Peace; come a-|way: the|song of|woe Is|af- ter all an|earth\- * ly|song:|Peace; come a-|way: we|
 cd e3 d | c=B B2 c z | z2 c2 =B2 | G4 z2 | c2 z2 _BB | c2 z2 c2 | c4 B2 | _A4- AG | G3 G _A2- | %18
w: do him wrong To|sing so wild- ly~:|let us|go-|Come; let us|go: your|cheeks are|pale; * But|half my life|
 AF B3 _A | G4 c2 | c4 B2 | (A2 f2) _e2 | d4 d2 | e4- eG | FG A4 | z c d2 c2 | (B2 A2) B2 | %27
w: * I leave be-|hind: Me-|thinks my|friend * is|rich- ly|shrined; * But|I shall pass:|my work will|fail, * my|
 (c2 B2) (AG) | A6 ||[M:4/4][K:treble-8] c4 B2 A2 | (A4 G2) A2 | (d4 c2) B2 | (A4 B2) c2 | B4 B4 | %34
w: work * will *|fail.|Yet in these|ears, * till|hear\- * ing|dies * One|set slow|
 A4 A4 | G4 A4 |[M:4/4][K:treble-8] B6 B2 | A4 B4 | c4 c4 | c6 =B2 | _B6 B2 | A6 A2 | c2 A2 G2 F2 | %43
w: bell will|seem to|toll The|pass- ing|of the|sweet- est|soul That|e- ver|look'd with hu- man|
 (F4 E4) | z4 z2 c2 | c4 c4 | c4 c4 | c6 c2 | c6 c2 | c6 c2 | c4 d4 | G6 c2 | (c4 B4- | B2) z2 F4 | %54
w: eyes *|I|hear it|now, and|o'er and|o'er, e-|ter- nal|greet- ings|to the|dead; *|* And|
 B4 A2 z2 | B4 A2 z2 | B4 A2 z2 | F4 z2 B2 | c4 z2 B2 | c4 z2 B2 | G8- | G4 A4 | A8 |] %63
w: "A- ve,|A- ve,|A- ve,"|said, A-|dieu, a-|dieu, for|e\-|* ver-|more.|
V:5
 A,2 z2 F,>F, | G,2 z2 E,2 | (F,2 E,2) D,2 | (A,,2 B,,2) B,,2 | C,>C, D,2 A,,2 | D,4 C,2 | F,6 | %7
w: Peace; come a-|way: the|song * of|woe * Is|af- ter all an|earth- ly|song:|
 A,2 z2 B,>B, | G,2 z2 F,2 | E,D, ^C,3 D, | E,E, E,2 A, z | z2 F,2 G,2 | C,4 z2 | C,2 z2 G,,G,, | %14
w: Peace; come a|way:- we-|do him wrong To|sing so wild- ly~:|let us|go-|Come; let us|
 C,2 z2 C,2 | (F,2 _E,2) _D,2 | _E,4- E,E, | =E,3 E, F,2- | F,_A,, B,,3 B,, | C,4 B,2 | %20
w: go: your|cheeks * are|pale: * But|half my life|* I leave be-|hind: Me-|
 !courtesy!=A,4 G,2 | F,4 [F,C]2 | [B,,C]4 [B,,B,]2 | (B,2 A,3) C, | D,D, A,,4 | z A,, B,,2 C,2 | %26
w: thinks my|friend is|rich- ly|shrined; * But|I shall pass:|my work will|
 (F,3 _E,) D,2 | (A,,2 B,,2) D,2 | F,,6 ||[M:4/4] F,8 | F,6 F,2 | F,8 | F,8 | F,4 F,4 | F,4 F,4 | %35
w: fail, * my|work * will|fail.|Yet|in these|ears|One|set slow|bell will|
 F,4 F,4 |[M:4/4] F,6 F,2 | F,4 D,4 | C,4 B,,4 | A,,4 _A,,4 | G,,6 G,,2 | F,,6 F,2 | %42
w: seem to|toll The|pass- ing|of the|sweet- est|soul That|e- ver|
 D,2 D,2 G,2 G,,2 | C,8 | z4 z2 C,2 | B,4 A,4 | [G,B,]4 z2 C,2 | B,4 A,4 | [G,B,]4 [_G,B,]4 | %49
w: look'd with hu- man|eyes.|I|hear it|now, and|o'er and|o'er, e-|
 [F,A,]6 [F,A,]2 | [F,A,]4 [B,,A,]4 | [E,G,]4 [A,,G,]4 | [D,F,]8- | [D,F,]2 z2 F,4 | B,,4 F,2 z2 | %55
w: ter- nal|greet- ings|to the|dead;|* And|"A- ve,|
 B,,4 F,2 z2 | B,,4 F,2 z2 | F,4 z2 B,,2 | A,,4 z2 B,,2 | A,,4 z2 B,,2 | C,8- | C,4 [F,,C,]4 | %62
w: A- ve,|A- ve,"|said, A-|dieu, a-|dieu, for|e\-|* ver-|
 [F,,C,]8 |] %63
w: more.|
V:6
 x6 | x6 | x6 | x6 | x6 | x6 | x6 | x6 | x6 | x6 | x6 | x6 | x6 | x6 | x6 | x6 | x6 | x6 | x6 | %19
 x6 | x6 | x4 x2 | x4 x2 | C,4- C,C, | x4 x2 | x4 x2 | x4 x2 | x4 x2 | x6 ||[M:4/4] x8 | x8 | x8 | %32
 x8 | x8 | x8 | x8 |[M:4/4] x8 | x8 | x8 | x8 | x8 | x8 | x8 | x8 | x8 | x8 | x8 | x8 | x8 | x8 | %50
 x8 | x8 | x8 | x8 | x8 | x8 | x8 | x8 | x8 | x8 | x8 | x8 | x8 |] %63

